build/img/ico-vk-hover.svg

<svg width="18" height="18" viewBox="0 0 18 18" fill="#ffffff" xmlns="http://www.w3.org/2000/svg">
<rect x="0.5" y="0.5" width="17" height="17" rx="3.5" stroke="#3b181e" fill="#ffffff"/>
<path d="M13.2108 10.4747C14.0796 11.3166 14.2605 11.7283 14.2898 11.779C14.6484 12.4033 13.8921 12.4522 13.8921 12.4522L12.4431 12.4741C12.4431 12.4741 12.1301 12.5382 11.721 12.243C11.1782 11.8549 10.4366 10.8425 10.0389 10.9741C9.63464 11.1074 9.76341 12.1687 9.76341 12.1687C9.76341 12.1687 9.76667 12.2986 9.67539 12.4033C9.57433 12.5129 9.37873 12.4707 9.37873 12.4707H8.96146C8.96146 12.4707 7.41463 12.4775 6.15303 11.104C4.77897 9.60742 3.62985 6.80821 3.62985 6.80821C3.62985 6.80821 3.55976 6.63105 3.63474 6.53656C3.72113 6.43026 3.95421 6.43195 3.95421 6.43195H5.50431C5.50431 6.43195 5.64937 6.45219 5.75369 6.53318C5.84171 6.59899 5.88898 6.72385 5.88898 6.72385C5.88898 6.72385 6.07643 7.24522 6.40894 7.84589C7.05603 9.01687 7.35758 9.27334 7.57762 9.14679C7.8971 8.96288 7.80093 7.49156 7.80093 7.49156C7.80093 7.49156 7.80745 6.95669 7.63956 6.71878C7.50916 6.53318 7.2663 6.47919 7.15872 6.464C7.0707 6.45388 7.21414 6.24128 7.39996 6.14679C7.67868 6.00506 8.17256 5.99494 8.75446 6.00169C9.20759 6.00675 9.37873 6 9.37873 6C9.91336 6.13498 9.73244 6.65804 9.73244 7.90663C9.73244 8.30821 9.66235 8.87176 9.93944 9.05736C10.0584 9.14004 10.4855 9.15185 11.2108 7.86108C11.5564 7.24859 11.8286 6.67323 11.8286 6.67323C11.8286 6.67323 11.8873 6.54331 11.9736 6.48931C12.0649 6.43195 12.1855 6.43195 12.1855 6.43195L13.8171 6.44038C13.8171 6.44038 14.3077 6.37627 14.386 6.60911C14.4691 6.85208 14.1855 7.27728 13.5205 8.20697C12.4251 9.73397 12.3029 9.59223 13.2108 10.4747Z" fill="#3b181e"/>
</svg>

<svg width="18" height="18" fill="#fff" xmlns="http://www.w3.org/2000/svg"><rect x=".5" y=".5" width="17" height="17" rx="3.5" stroke="#3b181e"/><path d="M13.21 10.475c.87.842 1.05 1.253 1.08 1.304.358.624-.398.673-.398.673l-1.449.022s-.313.064-.722-.231c-.543-.388-1.284-1.4-1.682-1.269-.404.133-.276 1.195-.276 1.195s.004.13-.088.234c-.1.11-.296.068-.296.068H8.96s-1.546.006-2.808-1.367C4.779 9.607 3.63 6.808 3.63 6.808s-.07-.177.005-.271c.086-.107.32-.105.32-.105h1.55s.144.02.249.101c.088.066.135.19.135.19s.187.522.52 1.123c.647 1.17.949 1.427 1.169 1.3.32-.183.223-1.654.223-1.654s.006-.535-.161-.773c-.13-.186-.374-.24-.481-.255-.088-.01.055-.223.241-.317.279-.142.773-.152 1.354-.145.454.005.625-.002.625-.002.534.135.353.658.353 1.907 0 .401-.07.965.207 1.15.12.083.546.095 1.272-1.196.345-.612.618-1.188.618-1.188s.058-.13.145-.184c.09-.057.211-.057.211-.057l1.632.008s.49-.064.569.17c.083.242-.2.667-.865 1.597-1.096 1.527-1.218 1.385-.31 2.268z" fill="#3b181e"/></svg>
